X:1
T:Qui fodit foveam
T:Antoine de Févin
T:Source : Bicinia---Tomus I---Wittemberg---G.Rhau---1545. Editor : André Vierendeels (12/06/17).
T:Notes : Original clefs : G3 , C3 Editorial accidentals above the staff Original note values have been halved Dotted brackets indicate black notes
T:Qui fodit foveam
T:©
T:©
T:©
C:Antoine de Févin
Z:©
%%score [ 1 2 ]
L:1/8
Q:1/4=120
M:2/2
K:C
V:1 treble nm="Soprano" snm="S"
V:2 treble nm="Alto" snm="A"
V:1
 z8 | z4 A4- | A4 A4 | c3 B AG A2- | A2 GF E4 | A3 G GF G2- | AGFE C2 G2- | G2 FE F2 G2 | %8
w: |Qui|_ fo-|dit _ _ _ fo-|* ve- * am|in- * ci- * det|_ _ _ _ _ in|_ _ _ _ e-|
 A4 z2 D2- | DEFG AB c2- | cB BA/G/ A2 c2- | cB A4 G2 | A8 | z2 A2 G2 E2 | G3 F D2 F2- | %15
w: am, et|_ _ _ _ _ _ _|* * qui _ _ sta- *|* * tu- *|it|la- pi- dem|pro- xi- mo su-|
 FE A2 G2 E2- | EFGE F2 G2 | D2 F2 E4 | z2 A3 G G2 | A2 c2 B4 | z2 E3 D D2 | E2 G2 F4 | %22
w: * * * o of-|* * * * fen- dit|in e- o,|of- fen- dit|in e- o,|et _ qui|la- que- um|
 E3 F G2 A2 | D4 E4 | D8 | z2 G2 A2 B2- | B2 G2 A4 | A4 z2 G2 | A2 B4 G2 | A2 B3 G c2- | %30
w: a- * * li-|i pa-|rat,|per- i- bit|_ in il-|lo, per|i- bit in|il- * * *|
 cA B2 G2 c2- | cBAG A2 B2- | BA A4 G2 | A8 |] %34
w: |||lo.|
V:2
 D8 | D4 F3 E | DC D4 CB, | A,4 D3 C | CB, C3 B, A,G, | F,2 C2 C2 B,A, | B,2 C2 A,2 B,2 | %7
w: Qui|fo- dit _|_ _ fo- ve- *|am in- *|ci- * det _ _ _|_ _ _ _ _|e- am, et _|
 C4 D2 E2 | C2 D3 E F2- | F2 ED C4 | D4 C2 A,2 | C2 D2 B,4 | A,4 z2 D2 | C2 A,2 C3 B, | %14
w: _ _ _|||* qui sta-|* * tu-|it la-|pi- dem pro- xi-|
 G,2 B,3 A, D2 | C2 A,2 C3 B, | G,2 C2 D2 E2- | E2 D4 C2 | D2 F2 E4 | z2 E3 D D2 | E2 G2 F3 E | %21
w: mo su- o of-|fen- dit in _|_ e- o, of|_ fen- dit|in e- o,|et _ _|_ qui la- que-|
 CD E3 D D2- | DC C2 B,2 A,2 | B,C D4 C2 | D4 z2 D2 | E4 F2 D2 | E4 C2 D2- | D2 CB, A,2 C2- | %28
w: * * um _ a|_ _ li _ i|pa- * * *|rat, per-|i- bit in|il- lo _|_ _ _ _ per-|
 C2 D2 E4 |"^#" C2 D2 E3 C | F3 D E2 C2 | F3 E DC D2 | E2 A,2 B,4 | A,8 |] %34
w: * i- bit|in il- * *||||lo.|

